devices/symbolic/drive-harddisk-ieee1394-symbolic.svg

<svg xmlns="http://www.w3.org/2000/svg" viewBox="0 0 16 16">
  <defs id="defs3051">
    <style type="text/css" id="current-color-scheme">
      .ColorScheme-Text {
        color:#4d4d4d;
      }
      </style>
  </defs>
 <path 
     style="fill:#bebebe;fill-opacity:1;stroke:none" 
     class="ColorScheme-Text"
     d="M 2.953125 0.5 C 2.6041342 0.5 2.2699282 0.63757868 2.0449219 0.87304688 C 1.8199156 1.1085151 1.7058541 1.4160686 1.6738281 1.7363281 L 1.6738281 1.7246094 L 0.38867188 11.861328 A 0.47594415 0.47594415 0 0 0 0.38671875 11.921875 L 0.38476562 11.921875 L 0.38671875 11.945312 A 0.47594415 0.47594415 0 0 0 0.39257812 12.003906 L 0.62304688 14.736328 C 0.67063652 15.127381 0.95379094 15.441406 1.4296875 15.441406 L 14.617188 15.441406 C 15.093083 15.441406 15.378192 15.127381 15.425781 14.736328 L 15.613281 11.939453 L 15.615234 11.921875 L 15.613281 11.921875 A 0.47594415 0.47594415 0 0 0 15.611328 11.861328 L 14.326172 1.7246094 A 0.47594415 0.47594415 0 0 0 14.320312 1.6914062 C 14.262056 1.4001182 14.157113 1.1147632 13.943359 0.88085938 C 13.729606 0.64695564 13.395866 0.5 13.046875 0.5 L 2.953125 0.5 z M 2.953125 1.4511719 L 13.046875 1.4511719 C 13.17378 1.4511719 13.195001 1.4718034 13.242188 1.5234375 C 13.288758 1.5743985 13.3477 1.6925336 13.384766 1.8730469 L 14.646484 11.818359 L 14.583984 11.921875 L 11.332031 11.921875 L 10.855469 11.921875 L 1.3476562 11.921875 L 1.34375 11.904297 L 2.6191406 1.8457031 A 0.47594415 0.47594415 0 0 0 2.6210938 1.8320312 C 2.6366556 1.6763944 2.6865299 1.5813197 2.734375 1.53125 C 2.7822201 1.4811803 2.8262192 1.4511719 2.953125 1.4511719 z M 5.3964844 2.984375 L 3.8964844 4.1953125 L 4.3964844 4.5976562 L 5.8984375 3.3867188 L 5.3964844 2.984375 z M 10.402344 2.984375 L 8.9003906 4.1953125 L 10.402344 5.4042969 L 11.904297 4.1953125 L 10.402344 2.984375 z M 6.3984375 3.7910156 L 4.8964844 5.0019531 L 5.3964844 5.4042969 L 6.8984375 4.1953125 L 6.3984375 3.7910156 z M 7.9023438 4.7851562 C 6.925108 4.7851562 6.1328125 5.4230189 6.1328125 6.2109375 C 6.1328125 6.9988561 6.925108 7.6386719 7.9023438 7.6386719 C 8.8795795 7.6386719 9.671875 6.9988561 9.671875 6.2109375 C 9.671875 5.4230189 8.8795795 4.7851562 7.9023438 4.7851562 z M 7.9023438 5.3554688 C 8.488688 5.3554688 8.9628906 5.7381841 8.9628906 6.2109375 C 8.9628906 6.6836909 8.488688 7.0664062 7.9023438 7.0664062 C 7.3159995 7.0664062 6.8398438 6.6836909 6.8398438 6.2109375 C 6.8398438 5.7381841 7.3159995 5.3554688 7.9023438 5.3554688 z M 6.8398438 8.2089844 L 6.8398438 8.7792969 L 8.9628906 8.7792969 L 8.9628906 8.2089844 L 6.8398438 8.2089844 z M 6.8398438 9.3496094 L 6.8398438 9.9199219 L 8.9628906 9.9199219 L 8.9628906 9.3496094 L 6.8398438 9.3496094 z "
     />
</svg>

<svg xmlns="http://www.w3.org/2000/svg" viewBox="0 0 16 16">
  <path fill="#bebebe" d="M2.953.5c-.349 0-.683.138-.908.373-.225.236-.34.543-.371.863v-.011L.389 11.86a.476.476 0 0 0-.002.06H.385l.002.024a.476.476 0 0 0 .006.059l.23 2.732c.048.391.33.705.807.705h13.187c.476 0 .761-.314.809-.705l.187-2.797.002-.017h-.002a.476.476 0 0 0-.002-.06L14.326 1.724a.476.476 0 0 0-.006-.034c-.058-.29-.163-.576-.377-.81a1.229 1.229 0 0 0-.896-.38H2.953zm0 .951h10.094c.127 0 .148.02.195.072.047.051.106.17.143.35l1.261 9.945-.062.104H1.348l-.004-.018L2.619 1.846a.476.476 0 0 0 .002-.014.503.503 0 0 1 .113-.3c.048-.05.092-.08.22-.08zm2.443 1.533l-1.5 1.211.5.403 1.502-1.211-.502-.403zm5.006 0L8.9 4.195l1.502 1.21 1.502-1.21-1.502-1.21zm-4.004.807L4.896 5.002l.5.402 1.502-1.209-.5-.404zm1.504.994c-.977 0-1.77.638-1.77 1.426 0 .788.793 1.428 1.77 1.428.978 0 1.77-.64 1.77-1.428 0-.788-.792-1.426-1.77-1.426zm0 .57c.587 0 1.06.383 1.06.856s-.473.855-1.06.855c-.586 0-1.062-.382-1.062-.855s.476-.856 1.062-.856zM6.84 8.21v.57h2.123v-.57H6.84zm0 1.14v.57h2.123v-.57H6.84z"/>
</svg>
